X:1
T:Maiden Fair
T:John Playford (1623 - 1686) Arr. Marieh 
T:"Musick's Delight on the Cithren" (1666), No.17
C:John Playford (1623 - 1686)
%%score { ( 1 2 ) 3 }
L:1/8
Q:1/2=80
M:2/2
K:D
V:1 treble-8 nm="Bouzouki (4 chœurs)"
V:2 treble-8 
V:3 treble-8 nm="Guitare classique"
V:1
"D" [df]2 [df]2 [df]4 |"D" e2 f2 d2 cd |"A" [ce]2 [ce]2 [ce]3 f |"A" [ce]4"D" [Ad]4 :: %4
"D" B2 c2 [Ad]4 |"D" e2 f2 [Ad]2 cd |"A" e2 e2 e2 f2 |"A" [ce]4"D" [Ad]4!D.C.! :| %8
V:2
 D4 D4 | D4 D4 | A,4 A,4 | A,4 D4 :: D4 D4 | D4 D4 | A,4 A,4 | A,4 D4 :| %8
V:3
"D" !arpeggio![DAdf]4 !arpeggio![DAdf]4 |"D" !arpeggio![DAdf]4 !arpeggio![DAdf]4 | %2
"A" !arpeggio![A,EAc]4 !arpeggio![A,EAc]4 |"A" !arpeggio![A,EAc]4"D" !arpeggio![DAdf]4 :: %4
"D" !arpeggio![DAdf]4 !arpeggio![DAdf]4 |"D" !arpeggio![DAdf]4 !arpeggio![DAdf]4 | %6
"A" !arpeggio![A,EAc]4 !arpeggio![A,EAc]4 |"A" !arpeggio![A,EAc]4"D" !arpeggio![DAdf]4 :| %8

